X:1
T:Befiehl du deine Wege
T:Befiehl du deine Wege
T:Bartholomäus Gesius / Georg Philipp Telemann
T:Paul Gerhardt
C:Bartholomäus Gesius / Georg Philipp Telemann
Z:Paul Gerhardt
L:1/8
Q:1/4=108
M:4/4
K:C
V:1 treble nm="Piano" snm="Pno."
V:1
"Dm" D2 | F2 E2"B" F2 G2 |"F" A4 A2 c2 |"Dm" B2 A2"E" A2 ^G2 |"A" A4 z2"Dm" D2 | F2 E2"B" F2 G2 | %6
w: Be-|fiehl du dei- ne|We- ge und|was dein Her- ze|kränkt der|al- ler- treus- ten|
"F" A4 A2 c2 |"Dm" B2 A2"E" A2 ^G2 |"A" A4 z2"Dm" A2 |"G" B2 c2"Dm" d2 B2 |"C" c4"F" A2 A2 | %11
w: Pfle- ge des,|der den Him- mel|lenkt. Der|Wol- ken, Luft und|Win- den gibt|
"C" G2 F2"B" F2 E2 |"F" F4 z2"A" A2 |"Dm" F2 G2"F" A2 G2 |"Dm" F4"C" E2 F2 |"Gm" G2 A2"A7" F2 E2 | %16
w: We- ge, Lauf und|Bahn, der|wird auch We- ge|fin- den, da|dein Fuß ge- hen|
"Dm" D6 |] %17
w: kann.|

